packages/icon/src/svg/envelope.icon.svg

<svg role="img" aria-label="envelope icon" xmlns="http://www.w3.org/2000/svg" viewBox="0 0 24 24">
  <path d="M5.41421356,6 L12,12.5857864 L18.5857864,6 L5.41421356,6 Z M20,7.41421356 L12.3535534,15.0606602 C12.1582912,15.2559223 11.8417088,15.2559223 11.6464466,15.0606602 L4,7.41421356 L4,18 L20,18 L20,7.41421356 Z M3,4 L21,4 C21.5522847,4 22,4.44771525 22,5 L22,19 C22,19.5522847 21.5522847,20 21,20 L3,20 C2.44771525,20 2,19.5522847 2,19 L2,5 C2,4.44771525 2.44771525,4 3,4 Z"/>
</svg>

<svg aria-label="envelope icon" viewBox="0 0 24 24"><path d="M5.414 6L12 12.586 18.586 6H5.414zM20 7.414l-7.646 7.647a.5.5 0 01-.708 0L4 7.414V18h16V7.414zM3 4h18a1 1 0 011 1v14a1 1 0 01-1 1H3a1 1 0 01-1-1V5a1 1 0 011-1z"/></svg>
